X:1
T:10. Les Ramages
T:Concert for Two Flutes No. 5 in A major
T:MONTECLAIR Michel Pignolet de
%%score 1 2
L:1/8
Q:1/4=63
M:3/4
K:A
V:1 treble nm="I" snm="I"
V:2 treble nm="II" snm="II"
V:1
"^Lentement""^le Rossignol" e3/2 z/ e3/2 z/ e3/2 z/ |: (e>f) (e>f) (e>f) | %2
 (e3/2(3f/4g/4a/4) (e3/2(3f/4g/4a/4) (e3/2(3a/4g/4f/4) | (e3/2(3f/4g/4g/4 Tg3 f/g/) | a>d d>e d>e | %5
 Tc3/2(3A/4c/4e/4 a2 z z/ (3A/4c/4e/4 | =g2 z z/ (3A/4c/4e/4 f2- | f>(=g f>)(g f>)(g | %8
 f>)(a g>)(a g3/2)(a/4g/4 | Tg>)f Tf3 e |1 e3/2 z/ e3/2 z/ e3/2 z/ :|2 %11
[M:6/8]"_le Serain de Canarie" e3 e>fg || f>ga Tg>fe | f2 B c2 z | ^d2 z e2 z || %15
[M:2/4] B2 z"_le Merle" B | fe T^d>e | (fB) z2 | z4 | z2"_les Poules" ee | ee e(e/f/ | %21
 g2 a/) z/ z | z4 | z2 z (e/f/ | g2 a/) z/ z | z2 z2 | z4 | z4 | z4 | b2 Tg2 | e>f gg | Tgf eb | %32
 fg Tf>e | e2 e>f | gg ge |"_les Poules" aa aa | a/a/a/a/ a/a/a/a/ | a2 z2 | z2 AA | AA A(A/B/ | %40
 c2{d} z/) z/ (A/B/ | c2){d} z"^le Merle" A | ed Tc>d | (eA) z"_le Coucou" a | e z z a | e z z e | %46
 c2 z e | c z"_le Coq d'Inde" z/ g/4f/4e/4f/4e/4d/4 | c z z/ d/4c/4B/4c/4B/4A/4 | G2 z2 | z2 e>f | %51
 gg ge | aa a2 | Tg2 z2 | e>f gg | ge ac' | ga Tg>a | !fermata!a4 |] %58
V:2
 z6 |: c3/2 z/ c3/2 z/ c3/2 z/ | (c>d) (c>d) (c>d) | %3
 (c3/2(3e/4d/4c/4) (B3/2c/4d/4) (B3/2(3d/4c/4B/4) | (A3/2(3e/4f/4g/4 Tg3 f/g/) | %5
 a2 z z/ (3A/4c/4e/4 a2 | z z/ (3A/4c/4e/4 =g2 z z/ (3A/4c/4^d/4 | ^d>(e d>)(e d>)(e | %8
 ^d>)(f e>)(f e>)(f | e>)^d Td3 e |1 e2 z2 z2 :|2[M:6/8] e3 z3 || z2 z4 | z3 e>fg | f>ga Tg>fe || %15
[M:2/4] b2 z2 | z4 | z2 z f | ba Tg>a | (be) z2 | z4 | z2 ee | ee e(e/f/ | g2 a/) z/ z | %24
 z2 z (e/f/ | g2 a/) z/ z |"^le Perroquet" e>f gg | Tgf eb | b2 Tgb | z4 | z4 | z2 z g | ^de Td>e | %33
 e2 z2 | z4 | z4 | z2"_le Perroquet" A>B | cc cA |"^les Poules" ee ee | e/e/e/e/ e/e/e/e/ | %40
 e(A/B/ c2{d)} | z (A/B/ c2{d)} | z2"_le Rossignol" (A>B) | (A>B) (A>B) | (A/B/A/B/ A/B/A/B/) | %45
 (A>B) (G>B) | A3/2(3(c/4B/4A/4) G>B | A2 z2 | z/ e/4d/4c/4d/4c/4B/4 A/4c/4B/4A/4G/4A/4G/4F/4 | %49
 E2"^le Perroquet" A>B | cc cA | ee e2 | Tc2 z2 | z2 A>B | cA ee | e2 z A | eA e>e | !fermata!A4 |] %58

